assets/images/stories.svg

<svg fill="none" height="46" viewBox="0 0 144 46" width="144" xmlns="http://www.w3.org/2000/svg"><path d="m.764847 38.4961c0-.7422.097656-1.3867.292973-1.9336.23437-.5469.80078-.8203 1.69921-.8203.07813 0 .25391.0195.52735.0586.3125 0 .52734.0195.64453.0586-.03906 1.8359.25391 3.2226.87891 4.1601.625.8985 1.79687 1.3477 3.51562 1.3477 1.40625 0 2.79296-.2149 4.16016-.6445 1.3672-.4297 2.5977-1.0547 3.6914-1.875 1.1328-.8594 2.0313-1.8946 2.6953-3.1055.7031-1.211 1.0547-2.5781 1.0547-4.1016 0-.9375-.332-1.6015-.9961-1.9922-.625-.3906-1.3281-.7031-2.1094-.9375-.7812-.2343-1.5039-.4882-2.1679-.7617-.625-.3125-.9375-.8398-.9375-1.582 0-.8984.5468-1.7578 1.6406-2.5781 1.0937-.8203 2.3828-1.543 3.8672-2.168 1.4844-.6641 2.9492-1.1719 4.3945-1.5234 1.4844-.3907 2.6172-.586 3.3984-.586 0 1.1328-.2539 1.9336-.7617 2.4024-.4687.4687-1.0547.8398-1.7578 1.1132-.7031.2735-1.4258.5469-2.168.8204-.7031.2343-1.289.7031-1.7578 1.4062.625.5078 1.1328.9766 1.5235 1.4063.4297.3906.7617.8203.9961 1.289.2343.4688.3906.9961.4687 1.582.0781.5469.1172 1.211.1172 1.9922 0 2.0313-.4492 3.8868-1.3477 5.5664-.8593 1.6407-1.9921 3.0664-3.3984 4.2774-1.4062 1.1719-3.0078 2.0898-4.8047 2.7539-1.7969.625-3.6328.9375-5.50779.9375-1.01563 0-2.01172-.1172-2.98828-.3516-.9375-.2734-1.77735-.6836-2.51953-1.2304-.70313-.5469-1.26953-1.2305-1.69922-2.0508-.429689-.8203-.644533-1.7969-.644533-2.9297zm27.114853.8203c0-1.1328.2148-2.2656.6445-3.3984s.9375-2.2461 1.5235-3.3399c.5859-1.1328 1.1718-2.2461 1.7578-3.3398.625-1.0938 1.0937-2.168 1.4062-3.2227-.7422.4297-1.3867.6836-1.9336.7617-.5078.0391-1.1328.0586-1.875.0586-.0781 0-.332 0-.7617 0-.3906-.039-.6445-.0586-.7617-.0586.2344-.8593.664-1.6211 1.289-2.2851.625-.7031 1.3282-1.2891 2.1094-1.7578.8203-.5078 1.6602-.918 2.5196-1.2305.8984-.3516 1.6992-.625 2.4023-.8203 1.1719-1.8359 2.1289-3.6719 2.8711-5.5078.7422-1.875 1.4844-3.6914 2.2266-5.44924.7812-1.79687 1.6796-3.49609 2.6953-5.09765 1.0547-1.64063 2.4609-3.14453 4.2187-4.511722l.293 2.226562-7.3242 17.16795c.4297-.1172.957-.2344 1.582-.3515.625-.1172 1.25-.2344 1.875-.3516.6641-.1172 1.2891-.2148 1.875-.293.625-.1172 1.1523-.2344 1.582-.3515h.3516c.1953-.0391.3516-.0586.4687-.0586.5469 0 .9961.0976 1.3477.2929.3516.1954.6445.625.8789 1.2891-2.6562.7813-5.0586 1.6016-7.207 2.4609-2.1485.8594-4.0235 1.9922-5.625 3.3985-1.5625 1.3672-2.8516 3.125-3.8672 5.2734-.9766 2.1094-1.6602 4.8242-2.0508 8.1445 0 .7032.0391 1.3477.1172 1.9336.0781.586.5664.9375 1.4648 1.0547.8985 0 1.7383-.1758 2.5196-.5273.7812-.3516 1.5429-.7227 2.2851-1.1133.7422-.4297 1.4844-.8203 2.2266-1.1719.7812-.3515 1.6211-.5273 2.5195-.5273 0 .9375-.4101 1.7969-1.2305 2.5781-.8203.7813-1.8164 1.4648-2.9882 2.0508-1.1328.5859-2.3047 1.0351-3.5157 1.3476-1.2109.3125-2.207.4688-2.9882.4688-.7813 0-1.4844-.1563-2.1094-.4688s-1.1524-.7226-1.582-1.2304c-.3907-.5469-.7032-1.1719-.9375-1.875-.1954-.7032-.293-1.4258-.293-2.168zm15.5719.7617c0-.1562 0-.4687 0-.9375.039-.5078.0586-.8398.0586-.9961 1.25-2.8515 2.8515-5.4883 4.8046-7.9101 1.9532-2.4219 4.1602-4.5703 6.6211-6.4453.0782 0 .1954-.0196.3516-.0586.1953-.0782.332-.1172.4102-.1172 1.0546 0 1.914.2344 2.5781.7031.7031.4297 1.25 1.0156 1.6406 1.7578.4297.7031.7227 1.5039.8789 2.4024.1563.8593.2344 1.6992.2344 2.5195 0 1.5234-.3516 3.125-1.0547 4.8047-.7031 1.6406-1.6602 3.164-2.8711 4.5703-1.1719 1.3672-2.5195 2.5-4.043 3.3984-1.5234.8594-3.1054 1.2891-4.7461 1.2891-1.6406 0-2.871-.4297-3.6914-1.2891-.7812-.8984-1.1718-2.1289-1.1718-3.6914zm4.5703-.7031c0 .4297.1758.7227.5273.8789.3516.1563.7031.2344 1.0547.2344.9766 0 1.9141-.2539 2.8125-.7617.9375-.5469 1.7578-1.211 2.4609-1.9922.7422-.8203 1.3282-1.7188 1.7579-2.6953.4296-.9766.6445-1.9141.6445-2.8125 0-.4297-.0391-.8985-.1172-1.4063-.0391-.5469-.1562-1.0156-.3516-1.4062-.1953-.4297-.5078-.7618-.9375-.9961-.3906-.2344-.957-.2735-1.6992-.1172-.5469.1172-1.1719.625-1.875 1.5234-.7031.8985-1.3867 1.9531-2.0508 3.1641-.625 1.1719-1.1523 2.3633-1.582 3.5742-.4297 1.1719-.6445 2.1094-.6445 2.8125zm27.4664 1.1133c0-1.1719.2344-2.2461.7031-3.2227.5078-1.0156 1.0547-1.9726 1.6406-2.8711.586-.8984 1.1133-1.7968 1.5821-2.6953.5078-.8984.7617-1.8554.7617-2.8711 0-.2343-.0196-.5078-.0586-.8203 0-.3516-.0391-.6836-.1172-.9961-.0391-.3125-.1562-.5664-.3516-.7617-.1562-.2344-.3711-.3516-.6445-.3516-.0391 0-.1172.0196-.2344.0586-.0781 0-.1172.0196-.1172.0586-.5468.7422-1.2109 1.5821-1.9921 2.5196-.7422.8984-1.543 1.7968-2.4024 2.6953-.8594.8984-1.6992 1.7578-2.5195 2.5781s-1.5625 1.5039-2.2266 2.0508c-.4687.4297-1.1133 1.0156-1.9336 1.7578-.7812.7422-1.582 1.4844-2.4023 2.2266-.7813.7031-1.4844 1.3281-2.1094 1.875-.5859.5468-.918.8203-.9961.8203l-2.6953-2.2852c.3516 0 .7031-.0781 1.0547-.2344.3125-.1562.625-.332.9375-.5273 2.3437-1.5625 4.4531-3.3594 6.3281-5.3906 1.9141-2.0313 3.7891-4.2188 5.625-6.5625.0781-.1172.2735-.4493.5859-.9961.3516-.586.7227-1.2305 1.1133-1.9336.3907-.7422.7813-1.4649 1.1719-2.168.3906-.7422.6836-1.3281.8789-1.7578.2344-.5078.3711-.918.4102-1.2305.0781-.3125.1367-.5469.1757-.7031.0782-.1953.1954-.332.3516-.4102.1563-.0781.4883-.1171.9961-.1171.0781 0 .2539.0195.5273.0585.3126.0391.5079.0782.586.1172.5078 1.0547.957 1.9922 1.3476 2.8125.3907.8203.7227 1.6016.9961 2.3438.2735.7031.4688 1.4258.586 2.168.1562.7421.2343 1.5625.2343 2.4609-.5078 1.2891-1.0742 2.6172-1.6992 3.9844-.625 1.3281-1.1523 2.5976-1.582 3.8086-.4297 1.2109-.7031 2.3046-.8203 3.2812-.0781.9766.1367 1.7578.6445 2.3438.5469.5468 1.4453.8398 2.6953.8789 1.2891.039 3.1055-.293 5.4493-.9961.625.3125.6835.7031.1757 1.1718-.5078.4297-1.289.8399-2.3437 1.2305-1.0156.3906-2.1485.7227-3.3985.9961-1.2109.2344-2.2265.293-3.0468.1758-.7422 0-1.3672-.1172-1.875-.3516-.4688-.2734-.8594-.625-1.1719-1.0547-.2734-.4296-.4883-.9179-.6445-1.4648-.1172-.5469-.1758-1.1133-.1758-1.6992zm8.8922.7031c0-.5469.0586-1.0156.1757-1.4062.1172-.4297.3321-.9766.6446-1.6407.2734-.3906.7617-1.1328 1.4648-2.2265.7422-1.0938 1.5039-2.2461 2.2852-3.4571.8203-1.2109 1.582-2.3437 2.2851-3.3984.7422-1.0937 1.25-1.8555 1.5235-2.2852.3515-.5078.625-.7812.8203-.8203.1953-.039.5664-.0586 1.1133-.0586.3515 0 .7226.0196 1.1132.0586.4297.0391.7032.3125.8204.8203-.5469 1.3282-1.2891 2.5977-2.2266 3.8086-.8984 1.1719-1.7969 2.3438-2.6953 3.5157-.8594 1.1718-1.6211 2.3828-2.2852 3.6328-.664 1.2109-.9961 2.5195-.9961 3.9258.1563 0 .3907.0195.7032.0586.3515.039.7226.0781 1.1132.1171.3907.0391.7422.0782 1.0547.1172.3516.0391.6055.0391.7617 0 .2344-.039.625-.1172 1.1719-.2343.586-.1563 1.1914-.3126 1.8164-.4688.6641-.1562 1.2891-.3125 1.875-.4688.586-.1562.9961-.2734 1.2305-.3515v.4101c.0391.1563.0586.2735.0586.3516 0 .7813-.3711 1.4258-1.1133 1.9336-.7031.5078-1.543.918-2.5195 1.2305-.9375.2734-1.9141.4687-2.9297.5859-.9766.0781-1.7383.1172-2.2852.1172-.5859 0-1.1914-.0586-1.8164-.1758-.5859-.1562-1.1133-.3906-1.582-.7031-.4688-.3125-.8594-.7031-1.1719-1.1719-.2734-.5078-.4101-1.1133-.4101-1.8164zm17.0505-34.33593c.508 0 .977.01953 1.406.05859.43.03906.801.13672 1.114.29297.312.15625.566.39063.761.70313.196.3125.293.74218.293 1.28906v.76172c0 .27346-.039.54686-.117.82026-.039.2344-.136.4493-.293.6446-.156.1562-.41.2344-.761.2344-.547 0-.997-.1954-1.348-.586-.313-.3906-.547-.8398-.703-1.34764-.156-.54687-.254-1.09375-.293-1.64062-.039-.54688-.059-.95703-.059-1.23047zm-3.1193 35.09763c-.664-1.4843-.957-2.9297-.8789-4.3359.0781-1.4453.3906-2.793.9375-4.043.586-1.289 1.3281-2.4414 2.2267-3.457.937-1.0547 1.933-1.9531 2.988-2.6953 1.055-.7813 2.11-1.3672 3.164-1.7578 1.094-.3907 2.051-.5469 2.871-.4688.821.0391 1.465.332 1.934.8789s.625 1.3867.469 2.5196c0 1.5234-.489 2.8515-1.465 3.9843-.938 1.1328-1.992 2.1485-3.164 3.0469-1.133.8984-2.188 1.7188-3.164 2.4609-.938.7032-1.407 1.3672-1.407 1.9922 0 .3516.196.625.586.8203.43.1954.918.3516 1.465.4688.547.0781 1.094.1367 1.641.1758.547.039.937.0781 1.172.1172 3.672-.7813 6.426-1.25 8.261-1.4063 1.836-.1953 2.989-.1758 3.457.0586.469.1953.372.5273-.292.9961-.625.4297-1.602.8984-2.93 1.4062-1.328.4688-2.871.8985-4.629 1.2891s-3.496.625-5.215.7031c-1.719.0391-3.32-.1367-4.805-.5273-1.445-.3906-2.5192-1.1328-3.2223-2.2266zm10.2543-13.3593c-.782 0-1.524.2148-2.227.6445s-1.348.9765-1.934 1.6406c-.546.625-1.015 1.3281-1.406 2.1094-.39.7422-.683 1.4453-.879 2.1094.078.039.137.0585.176.0585h.176c.547 0 1.172-.2343 1.875-.7031.703-.4687 1.367-1.0351 1.992-1.6992.625-.7031 1.152-1.4258 1.582-2.168.43-.7421.645-1.4062.645-1.9921zm9.009 9.9023c0-.7422.098-1.3867.293-1.9336.234-.5469.801-.8203 1.699-.8203.078 0 .254.0195.528.0586.312 0 .527.0195.644.0586-.039 1.8359.254 3.2226.879 4.1601.625.8985 1.797 1.3477 3.516 1.3477 1.406 0 2.793-.2149 4.16-.6445 1.367-.4297 2.597-1.0547 3.691-1.875 1.133-.8594 2.031-1.8946 2.695-3.1055.704-1.211 1.055-2.5781 1.055-4.1016 0-.9375-.332-1.6015-.996-1.9922-.625-.3906-1.328-.7031-2.109-.9375-.782-.2343-1.504-.4882-2.168-.7617-.625-.3125-.938-.8398-.938-1.582 0-.8984.547-1.7578 1.641-2.5781s2.383-1.543 3.867-2.168c1.484-.6641 2.949-1.1719 4.395-1.5234 1.484-.3907 2.617-.586 3.398-.586 0 1.1328-.254 1.9336-.762 2.4024-.468.4687-1.054.8398-1.758 1.1132-.703.2735-1.425.5469-2.167.8204-.704.2343-1.29.7031-1.758 1.4062.625.5078 1.133.9766 1.523 1.4063.43.3906.762.8203.996 1.289.235.4688.391.9961.469 1.582.078.5469.117 1.211.117 1.9922 0 2.0313-.449 3.8868-1.347 5.5664-.86 1.6407-1.993 3.0664-3.399 4.2774-1.406 1.1719-3.008 2.0898-4.805 2.7539-1.796.625-3.632.9375-5.507.9375-1.016 0-2.012-.1172-2.989-.3516-.937-.2734-1.777-.6836-2.519-1.2304-.703-.5469-1.27-1.2305-1.699-2.0508-.43-.8203-.645-1.7969-.645-2.9297z" fill="#fff"/></svg>

<svg width="144" height="46" viewBox="0 0 144 46" fill="none" xmlns="http://www.w3.org/2000/svg">
<path d="M0.764847 38.4961C0.764847 37.7539 0.862503 37.1094 1.05782 36.5625C1.29219 36.0156 1.8586 35.7422 2.75703 35.7422C2.83516 35.7422 3.01094 35.7617 3.28438 35.8008C3.59688 35.8008 3.81172 35.8203 3.92891 35.8594C3.88985 37.6953 4.18282 39.082 4.80782 40.0195C5.43282 40.918 6.60469 41.3672 8.32344 41.3672C9.72969 41.3672 11.1164 41.1523 12.4836 40.7227C13.8508 40.293 15.0813 39.668 16.175 38.8477C17.3078 37.9883 18.2063 36.9531 18.8703 35.7422C19.5734 34.5312 19.925 33.1641 19.925 31.6406C19.925 30.7031 19.593 30.0391 18.9289 29.6484C18.3039 29.2578 17.6008 28.9453 16.8195 28.7109C16.0383 28.4766 15.3156 28.2227 14.6516 27.9492C14.0266 27.6367 13.7141 27.1094 13.7141 26.3672C13.7141 25.4688 14.2609 24.6094 15.3547 23.7891C16.4484 22.9688 17.7375 22.2461 19.2219 21.6211C20.7063 20.957 22.1711 20.4492 23.6164 20.0977C25.1008 19.707 26.2336 19.5117 27.0148 19.5117C27.0148 20.6445 26.7609 21.4453 26.2531 21.9141C25.7844 22.3828 25.1984 22.7539 24.4953 23.0273C23.7922 23.3008 23.0695 23.5742 22.3273 23.8477C21.6242 24.082 21.0383 24.5508 20.5695 25.2539C21.1945 25.7617 21.7023 26.2305 22.093 26.6602C22.5227 27.0508 22.8547 27.4805 23.0891 27.9492C23.3234 28.418 23.4797 28.9453 23.5578 29.5312C23.6359 30.0781 23.675 30.7422 23.675 31.5234C23.675 33.5547 23.2258 35.4102 22.3273 37.0898C21.468 38.7305 20.3352 40.1562 18.9289 41.3672C17.5227 42.5391 15.9211 43.457 14.1242 44.1211C12.3273 44.7461 10.4914 45.0586 8.61641 45.0586C7.60078 45.0586 6.60469 44.9414 5.62813 44.707C4.69063 44.4336 3.85078 44.0234 3.1086 43.4766C2.40547 42.9297 1.83907 42.2461 1.40938 41.4258C0.979691 40.6055 0.764847 39.6289 0.764847 38.4961ZM27.8797 39.3164C27.8797 38.1836 28.0945 37.0508 28.5242 35.918C28.9539 34.7852 29.4617 33.6719 30.0477 32.5781C30.6336 31.4453 31.2195 30.332 31.8055 29.2383C32.4305 28.1445 32.8992 27.0703 33.2117 26.0156C32.4695 26.4453 31.825 26.6992 31.2781 26.7773C30.7703 26.8164 30.1453 26.8359 29.4031 26.8359C29.325 26.8359 29.0711 26.8359 28.6414 26.8359C28.2508 26.7969 27.9969 26.7773 27.8797 26.7773C28.1141 25.918 28.5437 25.1562 29.1687 24.4922C29.7937 23.7891 30.4969 23.2031 31.2781 22.7344C32.0984 22.2266 32.9383 21.8164 33.7977 21.5039C34.6961 21.1523 35.4969 20.8789 36.2 20.6836C37.3719 18.8477 38.3289 17.0117 39.0711 15.1758C39.8133 13.3008 40.5555 11.4844 41.2977 9.72656C42.0789 7.92969 42.9773 6.23047 43.993 4.62891C45.0477 2.98828 46.4539 1.48438 48.2117 0.117188L48.5047 2.34375L41.1805 19.5117C41.6102 19.3945 42.1375 19.2773 42.7625 19.1602C43.3875 19.043 44.0125 18.9258 44.6375 18.8086C45.3016 18.6914 45.9266 18.5938 46.5125 18.5156C47.1375 18.3984 47.6648 18.2812 48.0945 18.1641C48.1336 18.1641 48.2508 18.1641 48.4461 18.1641C48.6414 18.125 48.7977 18.1055 48.9148 18.1055C49.4617 18.1055 49.9109 18.2031 50.2625 18.3984C50.6141 18.5938 50.907 19.0234 51.1414 19.6875C48.4852 20.4688 46.0828 21.2891 43.9344 22.1484C41.7859 23.0078 39.9109 24.1406 38.3094 25.5469C36.7469 26.9141 35.4578 28.6719 34.4422 30.8203C33.4656 32.9297 32.782 35.6445 32.3914 38.9648C32.3914 39.668 32.4305 40.3125 32.5086 40.8984C32.5867 41.4844 33.075 41.8359 33.9734 41.9531C34.8719 41.9531 35.7117 41.7773 36.493 41.4258C37.2742 41.0742 38.0359 40.7031 38.7781 40.3125C39.5203 39.8828 40.2625 39.4922 41.0047 39.1406C41.7859 38.7891 42.6258 38.6133 43.5242 38.6133C43.5242 39.5508 43.1141 40.4102 42.2937 41.1914C41.4734 41.9727 40.4773 42.6562 39.3055 43.2422C38.1727 43.8281 37.0008 44.2773 35.7898 44.5898C34.5789 44.9023 33.5828 45.0586 32.8016 45.0586C32.0203 45.0586 31.3172 44.9023 30.6922 44.5898C30.0672 44.2773 29.5398 43.8672 29.1102 43.3594C28.7195 42.8125 28.407 42.1875 28.1727 41.4844C27.9773 40.7812 27.8797 40.0586 27.8797 39.3164ZM43.4516 40.0781C43.4516 39.9219 43.4516 39.6094 43.4516 39.1406C43.4906 38.6328 43.5102 38.3008 43.5102 38.1445C44.7602 35.293 46.3617 32.6562 48.3148 30.2344C50.268 27.8125 52.475 25.6641 54.9359 23.7891C55.0141 23.7891 55.1313 23.7695 55.2875 23.7305C55.4828 23.6523 55.6195 23.6133 55.6977 23.6133C56.7523 23.6133 57.6117 23.8477 58.2758 24.3164C58.9789 24.7461 59.5258 25.332 59.9164 26.0742C60.3461 26.7773 60.6391 27.5781 60.7953 28.4766C60.9516 29.3359 61.0297 30.1758 61.0297 30.9961C61.0297 32.5195 60.6781 34.1211 59.975 35.8008C59.2719 37.4414 58.3148 38.9648 57.1039 40.3711C55.932 41.7383 54.5844 42.8711 53.0609 43.7695C51.5375 44.6289 49.9555 45.0586 48.3148 45.0586C46.6742 45.0586 45.4438 44.6289 44.6234 43.7695C43.8422 42.8711 43.4516 41.6406 43.4516 40.0781ZM48.0219 39.375C48.0219 39.8047 48.1977 40.0977 48.5492 40.2539C48.9008 40.4102 49.2523 40.4883 49.6039 40.4883C50.5805 40.4883 51.518 40.2344 52.4164 39.7266C53.3539 39.1797 54.1742 38.5156 54.8773 37.7344C55.6195 36.9141 56.2055 36.0156 56.6352 35.0391C57.0648 34.0625 57.2797 33.125 57.2797 32.2266C57.2797 31.7969 57.2406 31.3281 57.1625 30.8203C57.1234 30.2734 57.0063 29.8047 56.8109 29.4141C56.6156 28.9844 56.3031 28.6523 55.8734 28.418C55.4828 28.1836 54.9164 28.1445 54.1742 28.3008C53.6273 28.418 53.0023 28.9258 52.2992 29.8242C51.5961 30.7227 50.9125 31.7773 50.2484 32.9883C49.6234 34.1602 49.0961 35.3516 48.6664 36.5625C48.2367 37.7344 48.0219 38.6719 48.0219 39.375ZM75.4883 40.4883C75.4883 39.3164 75.7227 38.2422 76.1914 37.2656C76.6992 36.25 77.2461 35.293 77.832 34.3945C78.418 33.4961 78.9453 32.5977 79.4141 31.6992C79.9219 30.8008 80.1758 29.8438 80.1758 28.8281C80.1758 28.5938 80.1562 28.3203 80.1172 28.0078C80.1172 27.6562 80.0781 27.3242 80 27.0117C79.9609 26.6992 79.8438 26.4453 79.6484 26.25C79.4922 26.0156 79.2773 25.8984 79.0039 25.8984C78.9648 25.8984 78.8867 25.918 78.7695 25.957C78.6914 25.957 78.6523 25.9766 78.6523 26.0156C78.1055 26.7578 77.4414 27.5977 76.6602 28.5352C75.918 29.4336 75.1172 30.332 74.2578 31.2305C73.3984 32.1289 72.5586 32.9883 71.7383 33.8086C70.918 34.6289 70.1758 35.3125 69.5117 35.8594C69.043 36.2891 68.3984 36.875 67.5781 37.6172C66.7969 38.3594 65.9961 39.1016 65.1758 39.8438C64.3945 40.5469 63.6914 41.1719 63.0664 41.7188C62.4805 42.2656 62.1484 42.5391 62.0703 42.5391L59.375 40.2539C59.7266 40.2539 60.0781 40.1758 60.4297 40.0195C60.7422 39.8633 61.0547 39.6875 61.3672 39.4922C63.7109 37.9297 65.8203 36.1328 67.6953 34.1016C69.6094 32.0703 71.4844 29.8828 73.3203 27.5391C73.3984 27.4219 73.5938 27.0898 73.9062 26.543C74.2578 25.957 74.6289 25.3125 75.0195 24.6094C75.4102 23.8672 75.8008 23.1445 76.1914 22.4414C76.582 21.6992 76.875 21.1133 77.0703 20.6836C77.3047 20.1758 77.4414 19.7656 77.4805 19.4531C77.5586 19.1406 77.6172 18.9062 77.6562 18.75C77.7344 18.5547 77.8516 18.418 78.0078 18.3398C78.1641 18.2617 78.4961 18.2227 79.0039 18.2227C79.082 18.2227 79.2578 18.2422 79.5312 18.2812C79.8438 18.3203 80.0391 18.3594 80.1172 18.3984C80.625 19.4531 81.0742 20.3906 81.4648 21.2109C81.8555 22.0312 82.1875 22.8125 82.4609 23.5547C82.7344 24.2578 82.9297 24.9805 83.0469 25.7227C83.2031 26.4648 83.2812 27.2852 83.2812 28.1836C82.7734 29.4727 82.207 30.8008 81.582 32.168C80.957 33.4961 80.4297 34.7656 80 35.9766C79.5703 37.1875 79.2969 38.2812 79.1797 39.2578C79.1016 40.2344 79.3164 41.0156 79.8242 41.6016C80.3711 42.1484 81.2695 42.4414 82.5195 42.4805C83.8086 42.5195 85.625 42.1875 87.9688 41.4844C88.5938 41.7969 88.6523 42.1875 88.1445 42.6562C87.6367 43.0859 86.8555 43.4961 85.8008 43.8867C84.7852 44.2773 83.6523 44.6094 82.4023 44.8828C81.1914 45.1172 80.1758 45.1758 79.3555 45.0586C78.6133 45.0586 77.9883 44.9414 77.4805 44.707C77.0117 44.4336 76.6211 44.082 76.3086 43.6523C76.0352 43.2227 75.8203 42.7344 75.6641 42.1875C75.5469 41.6406 75.4883 41.0742 75.4883 40.4883ZM84.3805 41.1914C84.3805 40.6445 84.4391 40.1758 84.5562 39.7852C84.6734 39.3555 84.8883 38.8086 85.2008 38.1445C85.4742 37.7539 85.9625 37.0117 86.6656 35.918C87.4078 34.8242 88.1695 33.6719 88.9508 32.4609C89.7711 31.25 90.5328 30.1172 91.2359 29.0625C91.9781 27.9688 92.4859 27.207 92.7594 26.7773C93.1109 26.2695 93.3844 25.9961 93.5797 25.957C93.775 25.918 94.1461 25.8984 94.693 25.8984C95.0445 25.8984 95.4156 25.918 95.8062 25.957C96.2359 25.9961 96.5094 26.2695 96.6266 26.7773C96.0797 28.1055 95.3375 29.375 94.4 30.5859C93.5016 31.7578 92.6031 32.9297 91.7047 34.1016C90.8453 35.2734 90.0836 36.4844 89.4195 37.7344C88.7555 38.9453 88.4234 40.2539 88.4234 41.6602C88.5797 41.6602 88.8141 41.6797 89.1266 41.7188C89.4781 41.7578 89.8492 41.7969 90.2398 41.8359C90.6305 41.875 90.982 41.9141 91.2945 41.9531C91.6461 41.9922 91.9 41.9922 92.0562 41.9531C92.2906 41.9141 92.6812 41.8359 93.2281 41.7188C93.8141 41.5625 94.4195 41.4062 95.0445 41.25C95.7086 41.0938 96.3336 40.9375 96.9195 40.7812C97.5055 40.625 97.9156 40.5078 98.15 40.4297C98.15 40.5078 98.15 40.6445 98.15 40.8398C98.1891 40.9961 98.2086 41.1133 98.2086 41.1914C98.2086 41.9727 97.8375 42.6172 97.0953 43.125C96.3922 43.6328 95.5523 44.043 94.5758 44.3555C93.6383 44.6289 92.6617 44.8242 91.6461 44.9414C90.6695 45.0195 89.9078 45.0586 89.3609 45.0586C88.775 45.0586 88.1695 45 87.5445 44.8828C86.9586 44.7266 86.4312 44.4922 85.9625 44.1797C85.4937 43.8672 85.1031 43.4766 84.7906 43.0078C84.5172 42.5 84.3805 41.8945 84.3805 41.1914ZM101.431 6.85547C101.939 6.85547 102.408 6.875 102.837 6.91406C103.267 6.95312 103.638 7.05078 103.951 7.20703C104.263 7.36328 104.517 7.59766 104.712 7.91016C104.908 8.22266 105.005 8.65234 105.005 9.19922C105.005 9.43359 105.005 9.6875 105.005 9.96094C105.005 10.2344 104.966 10.5078 104.888 10.7812C104.849 11.0156 104.752 11.2305 104.595 11.4258C104.439 11.582 104.185 11.6602 103.834 11.6602C103.287 11.6602 102.837 11.4648 102.486 11.0742C102.173 10.6836 101.939 10.2344 101.783 9.72656C101.627 9.17969 101.529 8.63281 101.49 8.08594C101.451 7.53906 101.431 7.12891 101.431 6.85547ZM98.3117 41.9531C97.6477 40.4688 97.3547 39.0234 97.4328 37.6172C97.5109 36.1719 97.8234 34.8242 98.3703 33.5742C98.9563 32.2852 99.6984 31.1328 100.597 30.1172C101.534 29.0625 102.53 28.1641 103.585 27.4219C104.64 26.6406 105.695 26.0547 106.749 25.6641C107.843 25.2734 108.8 25.1172 109.62 25.1953C110.441 25.2344 111.085 25.5273 111.554 26.0742C112.023 26.6211 112.179 27.4609 112.023 28.5938C112.023 30.1172 111.534 31.4453 110.558 32.5781C109.62 33.7109 108.566 34.7266 107.394 35.625C106.261 36.5234 105.206 37.3438 104.23 38.0859C103.292 38.7891 102.823 39.4531 102.823 40.0781C102.823 40.4297 103.019 40.7031 103.409 40.8984C103.839 41.0938 104.327 41.25 104.874 41.3672C105.421 41.4453 105.968 41.5039 106.515 41.543C107.062 41.582 107.452 41.6211 107.687 41.6602C111.359 40.8789 114.113 40.4102 115.948 40.2539C117.784 40.0586 118.937 40.0781 119.405 40.3125C119.874 40.5078 119.777 40.8398 119.113 41.3086C118.488 41.7383 117.511 42.207 116.183 42.7148C114.855 43.1836 113.312 43.6133 111.554 44.0039C109.796 44.3945 108.058 44.6289 106.339 44.707C104.62 44.7461 103.019 44.5703 101.534 44.1797C100.089 43.7891 99.0148 43.0469 98.3117 41.9531ZM108.566 28.5938C107.784 28.5938 107.042 28.8086 106.339 29.2383C105.636 29.668 104.991 30.2148 104.405 30.8789C103.859 31.5039 103.39 32.207 102.999 32.9883C102.609 33.7305 102.316 34.4336 102.12 35.0977C102.198 35.1367 102.257 35.1562 102.296 35.1562H102.472C103.019 35.1562 103.644 34.9219 104.347 34.4531C105.05 33.9844 105.714 33.418 106.339 32.7539C106.964 32.0508 107.491 31.3281 107.921 30.5859C108.351 29.8438 108.566 29.1797 108.566 28.5938ZM117.575 38.4961C117.575 37.7539 117.673 37.1094 117.868 36.5625C118.102 36.0156 118.669 35.7422 119.567 35.7422C119.645 35.7422 119.821 35.7617 120.095 35.8008C120.407 35.8008 120.622 35.8203 120.739 35.8594C120.7 37.6953 120.993 39.082 121.618 40.0195C122.243 40.918 123.415 41.3672 125.134 41.3672C126.54 41.3672 127.927 41.1523 129.294 40.7227C130.661 40.293 131.891 39.668 132.985 38.8477C134.118 37.9883 135.016 36.9531 135.68 35.7422C136.384 34.5312 136.735 33.1641 136.735 31.6406C136.735 30.7031 136.403 30.0391 135.739 29.6484C135.114 29.2578 134.411 28.9453 133.63 28.7109C132.848 28.4766 132.126 28.2227 131.462 27.9492C130.837 27.6367 130.524 27.1094 130.524 26.3672C130.524 25.4688 131.071 24.6094 132.165 23.7891C133.259 22.9688 134.548 22.2461 136.032 21.6211C137.516 20.957 138.981 20.4492 140.427 20.0977C141.911 19.707 143.044 19.5117 143.825 19.5117C143.825 20.6445 143.571 21.4453 143.063 21.9141C142.595 22.3828 142.009 22.7539 141.305 23.0273C140.602 23.3008 139.88 23.5742 139.138 23.8477C138.434 24.082 137.848 24.5508 137.38 25.2539C138.005 25.7617 138.513 26.2305 138.903 26.6602C139.333 27.0508 139.665 27.4805 139.899 27.9492C140.134 28.418 140.29 28.9453 140.368 29.5312C140.446 30.0781 140.485 30.7422 140.485 31.5234C140.485 33.5547 140.036 35.4102 139.138 37.0898C138.278 38.7305 137.145 40.1562 135.739 41.3672C134.333 42.5391 132.731 43.457 130.934 44.1211C129.138 44.7461 127.302 45.0586 125.427 45.0586C124.411 45.0586 123.415 44.9414 122.438 44.707C121.501 44.4336 120.661 44.0234 119.919 43.4766C119.216 42.9297 118.649 42.2461 118.22 41.4258C117.79 40.6055 117.575 39.6289 117.575 38.4961Z" fill="white"/>
</svg>
